!!!OTL: 729b. Das todtkranke Schaetzchen.
!!!ODT: 1820
!!!ARE: Europa, Mitteleuropa, Deutschland, Wuerttemberg
!!!SCT: E0729A
!!!TXL: @@DE
!!!YEM: Copyright 1995, estate of Helmut Schaffrath.
**kern	**text
*ICvox	*
*M4/4	*
*met(c)	*
*k[f#]	*
*G:	*
=1	=1
!LO:TX:a:t=Langsam.	!
!LO:TX:a:t=Würtembergiſch um 1820.	!
{4g	Grüß
4b	de
8ddL	Gott,
8ccJ	.
4b	herʒ-
=2	=2
8ccL	-tau-
8bJ	-ſi-
4a	-ger
4b	Schatʒ!
4r}	.
=3	=3
{4g	Grüß
4b	de
8ddL	Gott,
8ccJ	.
4b	herʒ-
=4	=4
8ccL	-tau-
8bJ	-ſi-
4a	-ger
4b	Schatʒ!
4r}	.
=5	=5
{(4b/	Hab
4a)	ich
4a	doch
4a	bei
=6	=6
4b	dir
8ddL	kein
8ccJ	.
4b	Platʒ,
4r}	.
=7	=7
{(4g	hab
4b)	ich
8ddL	doch
8ccJ	.
4b	bei
=8	=8
8ccL	dir
8bJ	.
4a	kein
4g	Platʒ.
4r}	.
==	==
!!!AGN: Liebes - Lied, Leid, Klage
!!!ONB: ESAC (Essen Associative Code) Database: ERK2
!!!AMT: simple quadruple
!!!AIN: vox
!!!EED: Helmut Schaffrath
!!!EEV: 1.0
!!!GTL: Liebeslieder [Neuere (aus dem 18. bis 19. Jahrh.) - Liebesleid] 678-740
!!!URL-scan: https://rosdok.uni-rostock.de/mcrviewer/recordIdentifier/rosdok_ppn745177662/iview2/phys_0536.iview2?x=193.8995864193107&y=948.8221995774657&scale=0.7029437510502773&rotation=0&layout=singlePageLayout
!!!ENC: Anna Maria Matuszewska
!!!EEV: 2024/12/16
*-	*-
